X:238
T:unattributed & untitled tune
%%VWML:SBG-1-2--0
F:http://www.vwml.org/record/SBG/1/2/
Z:Original Sibelius transcriptions by M. & S. Graebe
M:4/4
I:linebreak $
K:F
V:1 treble nm="P1"
V:1
 F | A A G F | B B A F | A A A G/F/ | G3 c | f f f d | c A/ F/ G A | A G F G |$ F2 | A/ B/ | %10
 c d d c | G3 A/B/ | c d d c | F3 c |$ f f f d | c A/ F/ G A | A/ A/ G F G/ G/ | F3 x | %18

